X:7
T: Hortobágyi kocsmárosné
O: Bazseva
L:1/4
K:C
d/d/^c/e/ /f/d/c/e/ | f/d/ d z |
a/a/g/f/ g/c/B/d/ | e/c/ c z  |
a/a/g/f/ e/d/^c/A/ | B/^c/d z |
g/g/g/f/ e/d/^c/d/ | A/A/ A z |

